X: 338
T:Que vous madame / In pace
N: Derived from Jos2733-Que_vous_madame__In_pace.krn
C: Josquin des Prez
%%abc-version 2.0
%%abcx-abcm2ps-target-version 5.9.1 (29 Sep 2008)
%%abc-creator hum2abc beta
%%abcx-conversion-date 2019/02/12 16:15:54
%%abc-edited-by Jesse Rodin
%%abc-edited-by Jesse Rodin; Victoria Chang 2011/07/26/
%%abcx-initial-encoding-date 2011/07/26/
%%humdrum-veritas 42126033
%%humdrum-veritas-data 2091929724
%%linebreak <none>
%%barnumbers 0
L: 1/4
M: 2/1
Q: 1/2=120
V: 1 clef=treble
V: 2 clef=treble-8
V: 3 clef=bass
K: C
[V:1] z8 | 
[V:2] c3de2f2- | 
[V:3] z8 | 
[V:1] z4G3A | 
[V:2] f2ede4- | 
[V:3] z8 | 
[V:1] B2c4BA | 
[V:2] e4e4 | 
[V:3] E,8 | 
[V:1] B4B4 | 
[V:2] e4d4 | 
[V:3] G,8- | 
[V:1] B3cd2e2- | 
[V:2] g8 | 
[V:3] G,8 | 
[V:1] edc4BA | 
[V:2] e4f4 | 
[V:3] A,8 | 
[V:1] B8 | 
[V:2] g6f2 | 
[V:3] G,8 | 
[V:1] z4B4 | 
[V:2] e2d2g4 | 
[V:3] z8 | 
[V:1] A2c4BA | 
[V:2] z2c4d2 | 
[V:3] z8 | 
[V:1] G2A2G2A2- | 
[V:2] e2f2e2f2- | 
[V:3] z8 | 
[V:1] AGFED4 | 
[V:2] fedcB3c | 
[V:3] z8 | 
[V:1] z4d4 | 
[V:2] d4G4 | 
[V:3] B,8- | 
[V:1] d4d4 | 
[V:2] z4g4- | 
[V:3] B,8 | 
[V:1] e8 | 
[V:2] g4g4 | 
[V:3] C8- | 
[V:1] e4f4- | 
[V:2] e4d4 | 
[V:3] C4D4- | 
[V:1] f2edf4 | 
[V:2] f8 | 
[V:3] D8 | 
[V:1] e4d4- | 
[V:2] g4G4 | 
[V:3] C4B,4 | 
[V:1] d2c2c4- | 
[V:2] c8 | 
[V:3] A,8 | 
[V:1] c2BAB4 | 
[V:2] d8 | 
[V:3] G,8 | 
[V:1] c6BA | 
[V:2] c8 | 
[V:3] z8 | 
[V:1] G2A2E4 | 
[V:2] z4c4 | 
[V:3] z8 | 
[V:1] z2c2B2A2- | 
[V:2] c4d4 | 
[V:3] z8 | 
[V:1] AGFED4 | 
[V:2] f8 | 
[V:3] z8 | 
[V:1] C4c4 | 
[V:2] e8- | 
[V:3] C8- | 
[V:1] c4B4- | 
[V:2] e4d4 | 
[V:3] C4G,4 | 
[V:1] B2A2A4- | 
[V:2] c4A4 | 
[V:3] A,8 | 
[V:1] A4^G4 | 
[V:2] B8 | 
[V:3] E,8 | 
[V:1] A8 | 
[V:2] A6B2 | 
[V:3] z4F,4- | 
[V:1] z4G4 | 
[V:2] c2d4^c2 | 
[V:3] F,2E,D,E,4 | 
[V:1] F2A4GF | 
[V:2] d4z4 | 
[V:3] D,8 | 
[V:1] E8 | 
[V:2] c6d2 | 
[V:3] z4A,4- | 
[V:1] z4B4 | 
[V:2] e2f4e2 | 
[V:3] A,2G,F,G,4 | 
[V:1] A2c4BA | 
[V:2] f4z4 | 
[V:3] F,8 | 
[V:1] G8 | 
[V:2] e6f2 | 
[V:3] z4C4- | 
[V:1] z4d4 | 
[V:2] g2a4^g2 | 
[V:3] C2B,A,B,4 | 
[V:1] c2e4dc | 
[V:2] a3ge3f | 
[V:3] A,8 | 
[V:1] B3cd2G2- | 
[V:2] g3fd2e2- | 
[V:3] z4G,4 | 
[V:1] G2FED4 | 
[V:2] e2dcB3A | 
[V:3] G,4G,4- | 
[V:1] z2G2A2c2 | 
[V:2] B2c2A4 | 
[V:3] G,2F,E,F,4 | 
[V:1] B3cd2e2- | 
[V:2] G2g3fed | 
[V:3] G,8- | 
[V:1] edc4B2 | 
[V:2] g2c2d4 | 
[V:3] G,8 | 
[V:1] c8 ||  
[V:2] c8 ||  
[V:3] C,8 ||  
[V:1] B8 | 
[V:2] g8 | 
[V:3] G,8- | 
[V:1] B4B4 | 
[V:2] g4g4 | 
[V:3] G,8 | 
[V:1] c6BA | 
[V:2] e4f4 | 
[V:3] z8 | 
[V:1] B3cd2G2- | 
[V:2] g3fd2e2- | 
[V:3] z8 | 
[V:1] G2FED2E2- | 
[V:2] e2dcB2c2 | 
[V:3] z4G,4- | 
[V:1] E2DCD4 | 
[V:2] B2c4B2 | 
[V:3] G,8 | 
[V:1] C3DE2F2 | 
[V:2] c8 | 
[V:3] A,6G,F, | 
[V:1] G4z2A2- | 
[V:2] z4c4 | 
[V:3] E,3D,F,4- | 
[V:1] A2G2F2ED | 
[V:2] A4B4 | 
[V:3] F,2E,2D,4 | 
[V:1] E8 | 
[V:2] c8- | 
[V:3] C,8- | 
[V:1] z4G4 | 
[V:2] c8 | 
[V:3] C,8 | 
[V:1] A4B4 | 
[V:2] z4d4 | 
[V:3] z8 | 
[V:1] c6BA | 
[V:2] e4f4 | 
[V:3] z8 | 
[V:1] B4B4 | 
[V:2] g6f2 | 
[V:3] G,8 | 
[V:1] c4d4 | 
[V:2] e4d4 | 
[V:3] A,4B,4 | 
[V:1] G2ABc4- | 
[V:2] e8 | 
[V:3] C6B,2 | 
[V:1] c2BAB2G2- | 
[V:2] z2c2d2e2- | 
[V:3] A,4G,4 | 
[V:1] GFG2AGFE | 
[V:2] edcBA4 | 
[V:3] E,4F,4 | 
[V:1] D8- | 
[V:2] B8- | 
[V:3] G,8 | 
[V:1] D8 |]  
[V:2] B8 |]  
[V:3] G,8 |]  



